G21 G94    / G94 : FEED MM/MIN
G91 G28 X0 Y0 Z0 / TOOL GO TO HOME POSITION  , G91 : INCREMNETAL METHOD
M06 T01
M03 S2500
G00 G90 G54 X0 Y0
G00 G43 H1 Z10  / SETTING HEIGHT OFFSET TAKE Z = 10 FOR 1 MM 
G00 X20 Y10     // SETTING FIRST POSTION
G01 Z-2 F100   // GIVE DEPTH OF CUT , FEED RATE AND THEN NOW JUST GIVE COORDIANTES OF ALL POINTS
G01 X10 Y20
G01 Y80
G02 X20 Y90 R10
G01 X80
G03 X90 Y80 R10
G01 Y20
G01 X80 Y10
G01 X20
G00 Z5
G91 G28 X0 Y0 Z0
M05
M30